icons/measure-building-height-top-shadow-16.svg

<svg id="icons" xmlns="http://www.w3.org/2000/svg" viewBox="0 0 16 16"><title>measure-building-height-top-shadow-16</title><path d="M3,3H4V4H3ZM3,7H4V6H3Zm0,3H4V9H3Zm0,3H4V12H3ZM5,4H6V3H5ZM5,7H6V6H5Zm0,3H6V9H5Zm0,3H6V12H5Zm8.32318-1.1709-1.06537.55176,2.25391,1.0849L14.92188,11l-1.06446.55176L10.63477,5.33691l1.06445-.55084L9.44727,3.7002,9.03522,6.167l1.06634-.55273ZM16,15v1H0V15H1V0H8V15ZM7,15V1H2V15Z"/></svg>

<svg xmlns="http://www.w3.org/2000/svg" viewBox="0 0 16 16"><path d="M3 3h1v1H3zm0 4h1V6H3zm0 3h1V9H3zm0 3h1v-1H3zm2-9h1V3H5zm0 3h1V6H5zm0 3h1V9H5zm0 3h1v-1H5zm8.323-1.17l-1.065.55 2.254 1.086.41-2.466-1.065.552-3.222-6.215 1.064-.55L9.447 3.7l-.412 2.467 1.067-.553zM16 15v1H0v-1h1V0h7v15zm-9 0V1H2v14z"/></svg>
